tools/download-figma-icons/icons/outlined-medium/tree-trunk.svg

<svg width="24" height="24" viewBox="0 0 24 24" fill="none" xmlns="http://www.w3.org/2000/svg">
<path fill-rule="evenodd" clip-rule="evenodd" d="M22.4999 13.5002H17.2493C17.052 13.5002 16.863 13.5782 16.7228 13.7162L15.4208 15.0002H10.4994C10.3044 15.0002 10.1169 15.0767 9.97742 15.2117L7.65771 17.4616C7.35997 17.7504 7.35322 18.2251 7.64121 18.5221C7.78896 18.6736 7.98471 18.7501 8.1797 18.7501C8.36795 18.7501 8.55619 18.6796 8.70244 18.5386L10.8031 16.5002H13.8976L8.15795 22.158C7.70046 22.614 6.95723 22.6125 6.50124 22.158L3.57705 19.2339L5.02977 17.7804C5.32301 17.4871 5.32301 17.0132 5.02977 16.7199C4.73577 16.4267 4.26178 16.4267 3.96854 16.7199L2.51582 18.1726L1.84158 17.4984C1.38559 17.0424 1.38559 16.2984 1.84158 15.8417L12.2574 5.42589L12.6954 7.99309L8.4692 12.22C8.17595 12.5132 8.17595 12.9872 8.4692 13.2805C8.61544 13.4267 8.80744 13.5002 8.99944 13.5002C9.19143 13.5002 9.38343 13.4267 9.52967 13.2805L14.0296 8.77982C14.2021 8.60808 14.2793 8.36283 14.2381 8.12359L13.5563 4.12692L15.8408 1.84246C16.0695 1.61447 16.3695 1.50047 16.6695 1.50047C16.9695 1.50047 17.2688 1.61447 17.4975 1.84246L20.4217 4.7659L16.719 8.46933C16.4258 8.76257 16.4258 9.23656 16.719 9.52981C16.8653 9.6768 17.0573 9.7503 17.2493 9.7503C17.4413 9.7503 17.634 9.6768 17.7803 9.52981L21.4829 5.82788L22.1572 6.50137C22.6132 6.95736 22.6132 7.70134 22.1437 8.17158L19.7062 10.7335C19.5 10.951 19.4422 11.2698 19.5607 11.5465C19.6785 11.8218 19.95 12.0003 20.25 12.0003H22.4999V13.5002ZM22.4998 10.5002H21.9988L23.2176 9.21844C24.2593 8.17596 24.2585 6.48174 23.2176 5.44076L18.5587 0.781859C17.5162 -0.26062 15.822 -0.26062 14.7802 0.781859L12.1935 3.36856C12.1748 3.39031 12.1508 3.40456 12.1358 3.42631L0.781015 14.7811C-0.260713 15.8236 -0.259963 17.5178 0.781015 18.5587L5.44067 23.2184C5.96116 23.7389 6.6459 23.9999 7.32988 23.9999C8.01387 23.9999 8.69635 23.7404 9.21459 23.2222L16.2577 16.281L16.2585 16.2803L17.5567 15.0001H22.4998C23.3271 15.0001 23.9998 14.3273 23.9998 13.5001V12.0001C23.9998 11.1729 23.3271 10.5002 22.4998 10.5002Z" fill="black"/>
</svg>

<svg width="24" height="24" viewBox="0 0 24 24" fill="none" xmlns="http://www.w3.org/2000/svg"><path fill-rule="evenodd" clip-rule="evenodd" d="M22.5 13.5h-5.25a.75.75 0 0 0-.527.216L15.42 15h-4.922a.752.752 0 0 0-.522.212l-2.32 2.25a.75.75 0 1 0 1.045 1.077l2.101-2.039h3.095l-5.74 5.658c-.458.456-1.2.454-1.657 0l-2.924-2.924L5.03 17.78a.75.75 0 1 0-1.061-1.06l-1.453 1.453-.674-.675a1.174 1.174 0 0 1 0-1.656L12.257 5.426l.438 2.567L8.47 12.22a.75.75 0 1 0 1.06 1.06l4.5-4.5a.747.747 0 0 0 .21-.656l-.683-3.997 2.285-2.285a1.17 1.17 0 0 1 1.656 0l2.925 2.924-3.703 3.703a.75.75 0 1 0 1.061 1.06l3.703-3.701.674.673c.456.456.456 1.2-.013 1.67l-2.438 2.563A.75.75 0 0 0 20.25 12h2.25v1.5Zm0-3h-.501l1.219-1.282a2.675 2.675 0 0 0 0-3.777L18.558.78a2.673 2.673 0 0 0-3.778 0l-2.586 2.59c-.02.021-.043.036-.058.057L.78 14.781a2.674 2.674 0 0 0 0 3.778l4.66 4.66c.52.52 1.205.78 1.889.78.684 0 1.366-.259 1.885-.777l7.043-6.941L17.558 15H22.5c.827 0 1.5-.674 1.5-1.5V12c0-.828-.673-1.5-1.5-1.5Z" fill="currentColor"/></svg>
